Numix/16x16/categories/applications-java.svg

<?xml version="1.0" encoding="UTF-8" standalone="no"?>
<svg
   xmlns:dc="http://purl.org/dc/elements/1.1/"
   xmlns:cc="http://creativecommons.org/ns#"
   xmlns:rdf="http://www.w3.org/1999/02/22-rdf-syntax-ns#"
   xmlns:svg="http://www.w3.org/2000/svg"
   xmlns="http://www.w3.org/2000/svg"
   xmlns:sodipodi="http://sodipodi.sourceforge.net/DTD/sodipodi-0.dtd"
   xmlns:inkscape="http://www.inkscape.org/namespaces/inkscape"
   width="16"
   height="16"
   viewBox="0 0 16 16"
   id="svg2"
   version="1.1"
   inkscape:version="0.91 r"
   sodipodi:docname="applications-java.svg">
  <metadata
     id="metadata26">
    <rdf:RDF>
      <cc:Work
         rdf:about="">
        <dc:format>image/svg+xml</dc:format>
        <dc:type
           rdf:resource="http://purl.org/dc/dcmitype/StillImage" />
      </cc:Work>
    </rdf:RDF>
  </metadata>
  <defs
     id="defs24" />
  <sodipodi:namedview
     pagecolor="#ffffff"
     bordercolor="#666666"
     borderopacity="1"
     objecttolerance="10"
     gridtolerance="10"
     guidetolerance="10"
     inkscape:pageopacity="0"
     inkscape:pageshadow="2"
     inkscape:window-width="1920"
     inkscape:window-height="1056"
     id="namedview22"
     showgrid="false"
     inkscape:zoom="14.75"
     inkscape:cx="8"
     inkscape:cy="8"
     inkscape:window-x="0"
     inkscape:window-y="24"
     inkscape:window-maximized="1"
     inkscape:current-layer="svg2" />
  <g
     style="fill:#e660c1;fill-rule:evenodd"
     id="g4"
     transform="matrix(1.0957023,0,0,1.0957023,-0.67487858,-0.67392242)">
    <path
       d="m 6.292969,11.296875 c 0,0 -0.472657,0.277344 0.335937,0.371094 0.980469,0.109375 1.480469,0.09375 2.5625,-0.109375 0,0 0.285156,0.175781 0.679688,0.332031 -2.421875,1.039063 -5.480469,-0.0625 -3.578125,-0.59375"
       id="path6"
       inkscape:connector-curvature="0" />
    <path
       d="m 5.996094,9.941406 c 0,0 -0.527344,0.394532 0.28125,0.476563 1.046875,0.109375 1.875,0.117187 3.304687,-0.15625 0,0 0.199219,0.199219 0.507813,0.308593 -2.925782,0.855469 -6.1875,0.07031 -4.09375,-0.628906"
       id="path8"
       inkscape:connector-curvature="0" />
    <path
       d="m 8.492188,7.644531 c 0.597656,0.6875 -0.15625,1.308594 -0.15625,1.308594 0,0 1.515624,-0.785156 0.816406,-1.761719 -0.648438,-0.914062 -1.144532,-1.367187 1.550781,-2.933594 0,0 -4.234375,1.058594 -2.210937,3.386719"
       id="path10"
       inkscape:connector-curvature="0" />
    <path
       d="m 11.695312,12.300781 c 0,0 0.347657,0.289063 -0.386718,0.511719 -1.398438,0.421875 -5.816406,0.550781 -7.042969,0.01563 -0.441406,-0.191406 0.382813,-0.457031 0.644531,-0.515625 0.273438,-0.05859 0.425782,-0.04687 0.425782,-0.04687 -0.488282,-0.347656 -3.171876,0.679687 -1.363282,0.972656 4.941406,0.800781 9.003906,-0.359375 7.722656,-0.9375"
       id="path12"
       inkscape:connector-curvature="0" />
    <path
       d="m 6.519531,8.539062 c 0,0 -2.246093,0.535157 -0.796875,0.730469 0.617188,0.082031 1.835938,0.0625 2.976563,-0.03125 C 9.628906,9.160156 10.5625,8.992188 10.5625,8.992188 c 0,0 -0.328125,0.140624 -0.566406,0.300781 C 7.714844,9.894531 3.304688,9.613281 4.574219,9 5.648438,8.480469 6.519531,8.539062 6.519531,8.539062"
       id="path14"
       inkscape:connector-curvature="0" />
    <path
       d="M 10.554688,10.792969 C 12.875,9.589844 11.800781,8.429688 11.054688,8.585938 10.871094,8.625 10.789062,8.65625 10.789062,8.65625 c 0,0 0.06641,-0.105469 0.195313,-0.152344 1.484375,-0.519531 2.621094,1.535156 -0.476563,2.351563 0,0 0.03516,-0.03125 0.04688,-0.0625"
       id="path16"
       inkscape:connector-curvature="0" />
    <path
       d="m 9.152344,1.730469 c 0,0 1.289062,1.289062 -1.21875,3.265625 -2.007813,1.585937 -0.457032,2.488281 0,3.519531 C 6.761719,7.460938 5.902344,6.53125 6.480469,5.664062 7.324219,4.390625 9.671875,3.773438 9.152344,1.730469"
       id="path18"
       inkscape:connector-curvature="0" />
    <path
       d="m 6.746094,14.0625 c 2.230468,0.144531 5.652344,-0.07813 5.734375,-1.132812 0,0 -0.15625,0.398437 -1.84375,0.714843 C 8.734375,14.003906 6.390625,13.964844 5,13.734375 c 0,0 0.285156,0.234375 1.746094,0.328125"
       id="path20"
       inkscape:connector-curvature="0" />
  </g>
</svg>

<svg width="16" xmlns="http://www.w3.org/2000/svg" height="16" viewBox="0 0 16 16" xmlns:xlink="http://www.w3.org/1999/xlink">
<g style="fill:#e660c1;fill-rule:evenodd">
<path d="M 6.292969 11.296875 C 6.292969 11.296875 5.820312 11.574219 6.628906 11.667969 C 7.609375 11.777344 8.109375 11.761719 9.191406 11.558594 C 9.191406 11.558594 9.476562 11.734375 9.871094 11.890625 C 7.449219 12.929688 4.390625 11.828125 6.292969 11.296875 "/>
<path d="M 5.996094 9.941406 C 5.996094 9.941406 5.46875 10.335938 6.277344 10.417969 C 7.324219 10.527344 8.152344 10.535156 9.582031 10.261719 C 9.582031 10.261719 9.78125 10.460938 10.089844 10.570312 C 7.164062 11.425781 3.902344 10.640625 5.996094 9.941406 "/>
<path d="M 8.492188 7.644531 C 9.089844 8.332031 8.335938 8.953125 8.335938 8.953125 C 8.335938 8.953125 9.851562 8.167969 9.152344 7.191406 C 8.503906 6.277344 8.007812 5.824219 10.703125 4.257812 C 10.703125 4.257812 6.46875 5.316406 8.492188 7.644531 "/>
<path d="M 11.695312 12.300781 C 11.695312 12.300781 12.042969 12.589844 11.308594 12.8125 C 9.910156 13.234375 5.492188 13.363281 4.265625 12.828125 C 3.824219 12.636719 4.648438 12.371094 4.910156 12.3125 C 5.183594 12.253906 5.335938 12.265625 5.335938 12.265625 C 4.847656 11.917969 2.164062 12.945312 3.972656 13.238281 C 8.914062 14.039062 12.976562 12.878906 11.695312 12.300781 "/>
<path d="M 6.519531 8.539062 C 6.519531 8.539062 4.273438 9.074219 5.722656 9.269531 C 6.339844 9.351562 7.558594 9.332031 8.699219 9.238281 C 9.628906 9.160156 10.5625 8.992188 10.5625 8.992188 C 10.5625 8.992188 10.234375 9.132812 9.996094 9.292969 C 7.714844 9.894531 3.304688 9.613281 4.574219 9 C 5.648438 8.480469 6.519531 8.539062 6.519531 8.539062 "/>
<path d="M 10.554688 10.792969 C 12.875 9.589844 11.800781 8.429688 11.054688 8.585938 C 10.871094 8.625 10.789062 8.65625 10.789062 8.65625 C 10.789062 8.65625 10.855469 8.550781 10.984375 8.503906 C 12.46875 7.984375 13.605469 10.039062 10.507812 10.855469 C 10.507812 10.855469 10.542969 10.824219 10.554688 10.792969 "/>
<path d="M 9.152344 1.730469 C 9.152344 1.730469 10.441406 3.019531 7.933594 4.996094 C 5.925781 6.582031 7.476562 7.484375 7.933594 8.515625 C 6.761719 7.460938 5.902344 6.53125 6.480469 5.664062 C 7.324219 4.390625 9.671875 3.773438 9.152344 1.730469 "/>
<path d="M 6.746094 14.0625 C 8.976562 14.207031 12.398438 13.984375 12.480469 12.929688 C 12.480469 12.929688 12.324219 13.328125 10.636719 13.644531 C 8.734375 14.003906 6.390625 13.964844 5 13.734375 C 5 13.734375 5.285156 13.96875 6.746094 14.0625 "/>
</g>
</svg>
